static/assets/img/decorations/deco-blob-13.svg

<svg fill="none" height="122" viewBox="0 0 43 122" width="43" xmlns="http://www.w3.org/2000/svg"><path d="m27.7833.279065c3.732-.675 6.381.368016 8.041 3.248015 1.477.226 2.83.22799 4.029.65799 2.301.825 3.123 2.36101 2.572 4.67001-.525 2.19302-1.189 4.35902-1.908 6.49902-1.184 3.529-2.465 7.026-3.695 10.54-.26.746-.475 1.509-.697 2.222.893 1.603 1.773 3.056 2.518 4.577.332.682.633 1.536.521 2.246-.365 2.347-.752 4.714-1.438 6.98-3.426 11.325-7.07 22.585-10.404 33.938-3.258 11.104-5.713 22.397-6.729 33.9559-.256 2.908-.291 5.835-.48 8.75-.049.764-.293 1.514-.432 2.196-4.137.875-4.514.304-7.125-2.6-1.986-2.207-2.502-4.548-2.66597-7.168-.105-1.708-.73402-3.026-1.89502-4.239-2.01-2.1-3.86498-4.348-5.91598-6.402-.717-.7189-1.176021-1.3909-1.193021-2.3749-.066-3.584-.163988-7.168-.187988-10.752-.016-2.493.919989-4.94.054993-7.507-.287-.853.435986-2.011.563986-3.046.242-1.974.23602-3.988.60502-5.934 1.041-5.467 2.12699-10.915 3.48199-16.328 1.971-7.859 4.18401-15.638 6.48799-23.396.643-2.161 1.385-4.304 2.238-6.39 2.162-5.278 4.404-10.523 6.641-15.77101.256-.603.553-1.35502 1.059-1.65802 2.742-1.637 3.979-4.54901 5.953-6.914005z" fill="#000"/></svg>

<svg width="43" height="122" viewBox="0 0 43 122" fill="none" xmlns="http://www.w3.org/2000/svg">
<path d="M27.7833 0.279065C31.5153 -0.395935 34.1643 0.647081 35.8243 3.52708C37.3013 3.75308 38.6543 3.75507 39.8533 4.18507C42.1543 5.01007 42.9763 6.54608 42.4253 8.85508C41.9003 11.0481 41.2363 13.2141 40.5173 15.3541C39.3333 18.8831 38.0523 22.3801 36.8223 25.8941C36.5623 26.6401 36.3473 27.4031 36.1253 28.1161C37.0183 29.7191 37.8983 31.1721 38.6433 32.6931C38.9753 33.3751 39.2763 34.2291 39.1643 34.9391C38.7993 37.2861 38.4123 39.6531 37.7263 41.9191C34.3003 53.2441 30.6563 64.5041 27.3223 75.8571C24.0643 86.9611 21.6093 98.2541 20.5933 109.813C20.3373 112.721 20.3023 115.648 20.1133 118.563C20.0643 119.327 19.8203 120.077 19.6813 120.759C15.5443 121.634 15.1673 121.063 12.5563 118.159C10.5703 115.952 10.0543 113.611 9.89033 110.991C9.78533 109.283 9.15631 107.965 7.99531 106.752C5.98531 104.652 4.13033 102.404 2.07933 100.35C1.36233 99.6311 0.903309 98.9591 0.886309 97.9751C0.820309 94.3911 0.722321 90.8071 0.698321 87.2231C0.682321 84.7301 1.61831 82.2831 0.753314 79.7161C0.466314 78.8631 1.1893 77.7051 1.3173 76.6701C1.5593 74.6961 1.55332 72.6821 1.92232 70.7361C2.96332 65.2691 4.04931 59.8211 5.40431 54.4081C7.37531 46.5491 9.58832 38.7701 11.8923 31.0121C12.5353 28.8511 13.2773 26.7081 14.1303 24.6221C16.2923 19.3441 18.5343 14.0991 20.7713 8.85109C21.0273 8.24809 21.3243 7.49607 21.8303 7.19307C24.5723 5.55607 25.8093 2.64406 27.7833 0.279065Z" fill="black"/>
</svg>
